design-system/icons/settings--labs-icons.svg

<svg width="21" height="20" viewBox="0 0 21 20" fill="none" xmlns="http://www.w3.org/2000/svg">
<g clip-path="url(#clip0_234_224)">
<mask id="mask0_234_224" style="mask-type:alpha" maskUnits="userSpaceOnUse" x="0" y="0" width="24" height="24">
<rect x="0.5" width="23.0833" height="23.0833" fill="currentColor"/>
</mask>
<g mask="url(#mask0_234_224)">
<path d="M9.02088 18.5385C8.65977 18.5385 8.34032 18.4169 8.06254 18.1739C7.78477 17.9308 7.6181 17.6287 7.56255 17.2676L7.35421 15.726C7.25699 15.6704 7.15282 15.6114 7.04171 15.5489C6.9306 15.4864 6.82643 15.4204 6.72921 15.351L5.25004 15.9551C4.90282 16.1079 4.5556 16.1218 4.20838 15.9968C3.86116 15.8718 3.59727 15.6496 3.41671 15.3301L1.93755 12.6635C1.75699 12.344 1.70143 12.0107 1.77088 11.6635C1.84032 11.3162 2.02088 11.0315 2.31255 10.8093L3.52088 9.8718V9.1218L2.33338 8.22596C2.04171 8.00374 1.86116 7.71555 1.79171 7.36138C1.72227 7.00721 1.77782 6.67041 1.95838 6.35096L3.43755 3.7468C3.6181 3.42735 3.87852 3.2086 4.2188 3.09055C4.55907 2.97249 4.90282 2.98291 5.25004 3.1218L6.64588 3.6843C6.75699 3.61485 6.87852 3.54541 7.01046 3.47596C7.14241 3.40652 7.26393 3.33707 7.37505 3.26763L7.56255 1.76763C7.60421 1.40652 7.76741 1.10443 8.05213 0.861379C8.33685 0.618323 8.65977 0.496796 9.02088 0.496796H11.9792C12.3403 0.496796 12.6632 0.618323 12.948 0.861379C13.2327 1.10443 13.3959 1.40652 13.4375 1.76763L13.625 3.28846C13.7362 3.35791 13.8577 3.42735 13.9896 3.4968C14.1216 3.56624 14.2431 3.63568 14.3542 3.70513L15.7292 3.1218C16.0764 2.96902 16.4202 2.95513 16.7605 3.08013C17.1007 3.20513 17.3681 3.42735 17.5625 3.7468L19.0417 6.35096C19.2223 6.67041 19.2778 7.00721 19.2084 7.36138C19.1389 7.71555 18.9584 8.00374 18.6667 8.22596L17.4375 9.16346V9.91346L18.625 10.8093C18.9167 11.0315 19.1007 11.3197 19.1771 11.6739C19.2535 12.028 19.2014 12.3649 19.0209 12.6843L17.5417 15.3301C17.3612 15.6496 17.0938 15.8718 16.7396 15.9968C16.3855 16.1218 16.0348 16.1079 15.6875 15.9551L14.25 15.351C14.1528 15.4065 14.0521 15.4655 13.948 15.528C13.8438 15.5905 13.7431 15.6496 13.6459 15.7051L13.4375 17.2676C13.382 17.6287 13.2153 17.9308 12.9375 18.1739C12.6598 18.4169 12.3403 18.5385 11.9792 18.5385H9.02088ZM10.4792 12.9968C11.4514 12.9968 12.2778 12.6565 12.9584 11.976C13.6389 11.2954 13.9792 10.469 13.9792 9.4968C13.9792 8.52457 13.6389 7.69818 12.9584 7.01763C12.2778 6.33707 11.4514 5.9968 10.4792 5.9968C9.50699 5.9968 8.6806 6.33707 8.00005 7.01763C7.31949 7.69818 6.97921 8.52457 6.97921 9.4968C6.97921 10.469 7.31949 11.2954 8.00005 11.976C8.6806 12.6565 9.50699 12.9968 10.4792 12.9968Z" fill="currentColor"/>
</g>
</g>
<defs>
<clipPath id="clip0_234_224">
<rect width="20" height="20" fill="white" transform="translate(0.5)"/>
</clipPath>
</defs>
</svg>

<svg xmlns="http://www.w3.org/2000/svg" width="21" height="20" fill="none" viewBox="0 0 21 20"><g clip-path="url(#a)"><mask id="b" width="24" height="24" x="0" y="0" maskUnits="userSpaceOnUse" style="mask-type:alpha"><path fill="currentColor" d="M.5 0h23.083v23.083H.5z"/></mask><g mask="url(#b)"><path fill="currentColor" d="M9.02 18.539q-.54 0-.957-.365a1.47 1.47 0 0 1-.5-.906l-.209-1.542-.312-.177a3 3 0 0 1-.313-.198l-1.479.604a1.36 1.36 0 0 1-1.042.042 1.44 1.44 0 0 1-.791-.667l-1.48-2.666a1.4 1.4 0 0 1-.166-1q.105-.522.542-.855l1.208-.937v-.75l-1.188-.896a1.4 1.4 0 0 1-.541-.865 1.43 1.43 0 0 1 .166-1.01l1.48-2.604q.27-.48.78-.656a1.43 1.43 0 0 1 1.032.03l1.396.563q.167-.105.364-.208.198-.105.365-.208l.188-1.5a1.36 1.36 0 0 1 .49-.907q.426-.364.968-.364h2.958q.541 0 .969.364.427.365.49.907l.187 1.52q.167.105.365.209.198.105.364.208l1.375-.583a1.33 1.33 0 0 1 1.032-.042q.51.187.802.667l1.479 2.604q.27.48.166 1.01-.105.532-.541.865l-1.23.937v.75l1.188.896q.438.334.552.865t-.156 1.01l-1.48 2.646a1.44 1.44 0 0 1-.801.667 1.38 1.38 0 0 1-1.052-.042l-1.438-.604-.302.177q-.156.095-.302.177l-.209 1.563a1.47 1.47 0 0 1-.5.906 1.4 1.4 0 0 1-.958.364zm1.46-5.542q1.457 0 2.478-1.021 1.02-1.02 1.021-2.48 0-1.457-1.02-2.478-1.022-1.02-2.48-1.021T8 7.017Q6.98 8.04 6.98 9.498T8 11.976q1.02 1.02 2.48 1.02"/></g></g><defs><clipPath id="a"><path fill="#fff" d="M.5 0h20v20H.5z"/></clipPath></defs></svg>
